; generated by PrusaSlicer 2.3.1+x64 on 2022-02-26 at 13:39:42 UTC

; 

; external perimeters extrusion width = 0.45mm
; perimeters extrusion width = 0.45mm
; infill extrusion width = 0.45mm
; solid infill extrusion width = 0.45mm
; top infill extrusion width = 0.40mm
; first layer extrusion width = 0.42mm

M73 P0 R201
M73 Q0 S201
M201 X1000 Y1000 Z200 E5000 ; sets maximum accelerations, mm/sec^2
M203 X200 Y200 Z12 E120 ; sets maximum feedrates, mm/sec
M204 P1250 R1250 T1250 ; sets acceleration (P, T) and retract acceleration (R), mm/sec^2
M205 X8.00 Y8.00 Z0.40 E4.50 ; sets the jerk limits, mm/sec
M205 S0 T0 ; sets the minimum extruding and travel feed rate, mm/sec
M107
;TYPE:Custom
M862.3 P "MK3S" ; printer model check
M862.1 P0.4 ; nozzle diameter check
M115 U3.10.1 ; tell printer latest fw version
G90 ; use absolute coordinates
M83 ; extruder relative mode
M104 S195 ; set extruder temp
M140 S60 ; set bed temp
M190 S60 ; wait for bed temp
M109 S195 ; wait for extruder temp
G28 W ; home all without mesh bed level
G80 ; mesh bed leveling
G1 Y-3.0 F1000.0 ; go outside print area
G92 E0.0
G1 X60.0 E9.0 F1000.0 ; intro line
G1 X100.0 E12.5 F1000.0 ; intro line
G92 E0.0
M221 S95

; Don't change E values below. Excessive value can damage the printer.
M907 E430 ; set extruder motor current
G21 ; set units to millimeters
G90 ; use absolute coordinates
M83 ; use relative distances for extrusion
M900 K0.05 ; Filament gcode LA 1.5
M900 K30 ; Filament gcode LA 1.0
;LAYER_CHANGE
;Z:0.2
;HEIGHT:0.2
;BEFORE_LAYER_CHANGE
G92 E0.0
;0.2


G1 E-0.80000 F2100.000
G1 Z0.400 F10800.000
;AFTER_LAYER_CHANGE
;0.2
G1 X61.145 Y52.964
G1 Z0.200
G1 E0.80000 F2100.000
M204 S1000
;TYPE:Skirt
;WIDTH:0.42
G1 F1200.000
G1 X64.564 Y49.017 E0.16373
G1 X66.535 Y46.962 E0.08928
G1 X70.504 Y43.220 E0.17103
G1 X72.642 Y41.397 E0.08809
G1 X76.997 Y38.050 E0.17222
G1 X79.307 Y36.451 E0.08809
G1 X83.977 Y33.559 E0.17222
G1 X86.437 Y32.201 E0.08809
G1 X91.374 Y29.793 E0.17222
G1 X93.958 Y28.690 E0.08809
G1 X99.112 Y26.791 E0.17222
G1 X101.794 Y25.954 E0.08809
G1 X107.113 Y24.583 E0.17222
G1 X109.861 Y24.020 E0.08797
G1 X112.632 Y23.551 E0.08809
G1 X118.087 Y22.908 E0.17223
G1 X120.890 Y22.720 E0.08809
G1 X126.348 Y22.629 E0.17115
G1 X129.190 Y22.724 E0.08916
G1 X134.663 Y23.186 E0.17223
G1 X137.447 Y23.563 E0.08809
G1 X142.809 Y24.566 E0.17103
G1 X145.579 Y25.229 E0.08928
G1 X150.812 Y26.766 E0.17103
G1 X156.081 Y28.706 E0.17604
G1 X161.062 Y30.930 E0.17103
G1 X163.567 Y32.203 E0.08809
G1 X168.332 Y34.935 E0.17222
G1 X170.696 Y36.453 E0.08809
G1 X173.075 Y38.103 E0.09078
G1 X177.358 Y41.397 E0.16942
G1 X179.496 Y43.220 E0.08809
G1 X183.492 Y46.989 E0.17223
G1 X185.436 Y49.017 E0.08809
G1 X189.032 Y53.169 E0.17223
G1 X190.762 Y55.383 E0.08809
G1 X193.922 Y59.876 E0.17223
G1 X195.421 Y62.253 E0.08809
G1 X198.113 Y67.040 E0.17223
G1 X199.364 Y69.556 E0.08809
G1 X201.547 Y74.555 E0.17103
G1 X202.553 Y77.219 E0.08928
G1 X204.221 Y82.412 E0.17103
G1 X205.575 Y87.861 E0.17604
G1 X206.533 Y93.231 E0.17103
G1 X206.887 Y96.019 E0.08809
G1 X207.302 Y101.496 E0.17222
G1 X207.374 Y104.342 E0.08928
G1 X207.237 Y109.795 E0.17103
G1 X207.025 Y112.597 E0.08809
G1 X206.336 Y118.046 E0.17222
G1 X205.844 Y120.813 E0.08809
G1 X204.610 Y126.165 E0.17222
G1 X203.842 Y128.868 E0.08809
G1 X202.075 Y134.069 E0.17222
G1 X201.039 Y136.680 E0.08809
G1 X198.758 Y141.677 E0.17222
G1 X197.465 Y144.171 E0.08809
G1 X194.693 Y148.913 E0.17222
G1 X193.157 Y151.261 E0.08797
G1 X191.539 Y153.558 E0.08809
G1 X188.155 Y157.885 E0.17223
G1 X186.315 Y160.008 E0.08809
G1 X182.539 Y163.945 E0.17103
G1 X180.467 Y165.898 E0.08928
G1 X176.309 Y169.441 E0.17127
G1 X174.082 Y171.153 E0.08809
G1 X171.434 Y173.030 E0.10177
G1 X167.214 Y175.733 E0.15711
G1 X164.777 Y177.131 E0.08809
M73 P0 R200
G1 X159.885 Y179.620 E0.17210
G1 X157.285 Y180.781 E0.08928
G1 X152.198 Y182.752 E0.17103
G1 X149.531 Y183.634 E0.08809
G1 X144.236 Y185.094 E0.17222
G1 X141.493 Y185.703 E0.08809
G1 X136.078 Y186.623 E0.17222
G1 X133.288 Y186.953 E0.08809
G1 X127.807 Y187.323 E0.17222
G1 X124.979 Y187.371 E0.08869
G1 X119.508 Y187.188 E0.17163
G1 X116.712 Y186.953 E0.08797
G1 X113.834 Y186.609 E0.09090
G1 X108.503 Y185.703 E0.16954
G1 X103.161 Y184.424 E0.17222
G1 X100.469 Y183.634 E0.08797
G1 X97.802 Y182.752 E0.08809
G1 X92.680 Y180.766 E0.17223
G1 X87.699 Y178.442 E0.17234
G1 X85.216 Y177.128 E0.08809
G1 X82.706 Y175.683 E0.09078
G1 X78.162 Y172.760 E0.16942
G1 X75.879 Y171.123 E0.08809
G1 X71.581 Y167.703 E0.17223
G1 X69.474 Y165.845 E0.08809
G1 X65.568 Y162.036 E0.17103
G1 X63.632 Y159.948 E0.08928
G1 X60.106 Y155.736 E0.17223
G1 X58.414 Y153.494 E0.08809
G1 X55.350 Y148.981 E0.17103
G1 X53.890 Y146.580 E0.08809
G1 X52.474 Y144.055 E0.09078
G1 X50.082 Y139.248 E0.16834
G1 X48.945 Y136.641 E0.08916
G1 X47.017 Y131.539 E0.17103
G1 X46.157 Y128.864 E0.08809
G1 X44.742 Y123.557 E0.17222
G1 X44.155 Y120.809 E0.08809
G1 X43.281 Y115.386 E0.17222
G1 X42.974 Y112.593 E0.08809
G1 X42.650 Y107.110 E0.17222
G1 X42.626 Y104.304 E0.08797
G1 X42.698 Y101.496 E0.08809
G1 X43.113 Y96.018 E0.17223
G1 X43.467 Y93.231 E0.08809
G1 X44.432 Y87.824 E0.17223
G1 X45.065 Y85.087 E0.08809
G1 X46.569 Y79.804 E0.17223
G1 X47.474 Y77.144 E0.08809
G1 X49.487 Y72.074 E0.17103
G1 X50.670 Y69.484 E0.08928
G1 X53.183 Y64.642 E0.17103
G1 X56.099 Y59.844 E0.17604
G1 X59.238 Y55.383 E0.17103
G1 X61.106 Y53.010 E0.09470
; printing object Housing id:0 copy 0
;WIPE_START
G1 F8640.000
G1 X63.261 Y50.522 E-0.76000
;WIPE_END
G1 E-0.04000 F2100.000
G1 Z0.600 F10800.000
G1 X121.643 Y101.938
G1 Z0.200
G1 E0.80000 F2100.000
;TYPE:Perimeter
G1 F1200.000
G1 X122.149 Y101.462 E0.02179
G1 X122.722 Y101.068 E0.02179
G1 X123.348 Y100.766 E0.02179
G1 X124.013 Y100.564 E0.02179
G1 X124.664 Y100.470 E0.02063
G1 X125.393 Y100.472 E0.02286
G1 X126.081 Y100.586 E0.02187
G1 X126.742 Y100.802 E0.02179
G1 X127.361 Y101.117 E0.02179
G1 X127.925 Y101.523 E0.02179
G1 X128.421 Y102.010 E0.02179
G1 X128.836 Y102.568 E0.02179
G1 X129.162 Y103.182 E0.02179
G1 X129.390 Y103.838 E0.02179
G1 X129.515 Y104.522 E0.02179
G1 X129.534 Y105.217 E0.02179
G1 X129.447 Y105.906 E0.02179
G1 X129.256 Y106.574 E0.02179
G1 X128.965 Y107.205 E0.02179
G1 X128.581 Y107.785 E0.02179
G1 X128.113 Y108.298 E0.02179
G1 X127.572 Y108.735 E0.02179
G1 X126.971 Y109.084 E0.02179
G1 X126.323 Y109.337 E0.02179
G1 X125.645 Y109.488 E0.02179
G1 X124.952 Y109.533 E0.02179
G1 X124.259 Y109.473 E0.02179
G1 X123.584 Y109.307 E0.02179
G1 X122.943 Y109.041 E0.02179
G1 X122.349 Y108.679 E0.02179
G1 X121.818 Y108.231 E0.02179
G1 X121.361 Y107.708 E0.02179
G1 X121.009 Y107.152 E0.02063
G1 X120.712 Y106.486 E0.02286
G1 X120.535 Y105.811 E0.02187
G1 X120.462 Y105.120 E0.02179
G1 X120.496 Y104.426 E0.02179
G1 X120.629 Y103.781 E0.02063
G1 X120.877 Y103.096 E0.02286
G1 X121.216 Y102.486 E0.02187
G1 X121.607 Y101.986 E0.01991
G1 X121.904 Y102.217 F10800.000
;TYPE:External perimeter
G1 F1200.000
G1 X122.387 Y101.756 E0.02094
G1 X122.912 Y101.395 E0.01997
G1 X123.486 Y101.118 E0.01998
G1 X124.095 Y100.933 E0.01997
G1 X124.691 Y100.847 E0.01887
G1 X125.362 Y100.849 E0.02104
G1 X125.991 Y100.953 E0.02000
G1 X126.597 Y101.152 E0.01997
G1 X127.164 Y101.440 E0.01998
G1 X127.682 Y101.812 E0.01998
G1 X128.136 Y102.259 E0.01998
G1 X128.517 Y102.770 E0.01998
G1 X128.815 Y103.333 E0.01998
G1 X129.024 Y103.935 E0.01998
G1 X129.139 Y104.561 E0.01998
G1 X129.156 Y105.198 E0.01998
G1 X129.076 Y105.830 E0.01998
G1 X128.901 Y106.443 E0.01998
G1 X128.634 Y107.021 E0.01997
G1 X128.282 Y107.552 E0.01998
G1 X127.853 Y108.023 E0.01998
G1 X127.358 Y108.423 E0.01998
G1 X126.807 Y108.743 E0.01998
G1 X126.213 Y108.975 E0.01998
G1 X125.591 Y109.113 E0.01998
G1 X124.956 Y109.155 E0.01998
G1 X124.321 Y109.100 E0.01998
G1 X123.702 Y108.948 E0.01998
G1 X123.114 Y108.704 E0.01997
G1 X122.570 Y108.372 E0.01998
G1 X122.083 Y107.962 E0.01998
G1 X121.664 Y107.482 E0.01998
G1 X121.342 Y106.973 E0.01887
G1 X121.069 Y106.360 E0.02104
G1 X120.907 Y105.743 E0.02000
G1 X120.840 Y105.109 E0.01998
G1 X120.872 Y104.473 E0.01998
G1 X120.992 Y103.884 E0.01887
G1 X121.221 Y103.253 E0.02104
G1 X121.532 Y102.695 E0.02000
G1 X121.867 Y102.265 E0.01712
G1 X121.780 Y101.837 F10800.000
;WIPE_START
G1 F8640.000
G1 X122.387 Y101.756 E-0.16791
G1 X122.912 Y101.395 E-0.14710
G1 X123.486 Y101.118 E-0.14710
G1 X124.095 Y100.933 E-0.14710
G1 X124.691 Y100.847 E-0.13894
G1 X124.742 Y100.847 E-0.01185
;WIPE_END
G1 E-0.04000 F2100.000
G1 Z0.600 F10800.000
G1 X95.752 Y90.097
G1 Z0.200
G1 E0.80000 F2100.000
;TYPE:Perimeter
G1 F1200.000
G1 X95.387 Y90.701 E0.02214
G1 X94.938 Y91.247 E0.02214
G1 X94.454 Y91.692 E0.02064
G1 X93.873 Y92.094 E0.02212
G1 X93.239 Y92.408 E0.02219
G1 X92.569 Y92.626 E0.02209
G1 X91.872 Y92.746 E0.02219
G1 X91.166 Y92.764 E0.02212
G1 X90.512 Y92.689 E0.02064
G1 X89.829 Y92.513 E0.02214
G1 X89.204 Y92.250 E0.02125
G1 X85.053 Y90.139 E0.14600
G1 X84.514 Y89.815 E0.01973
G1 X83.929 Y89.343 E0.02357
G1 X83.482 Y88.856 E0.02072
G1 X83.080 Y88.276 E0.02212
G1 X82.766 Y87.642 E0.02219
G1 X82.548 Y86.972 E0.02209
G1 X82.428 Y86.274 E0.02219
G1 X82.410 Y85.569 E0.02212
G1 X82.485 Y84.915 E0.02064
G1 X82.661 Y84.231 E0.02214
G1 X82.935 Y83.580 E0.02214
G1 X83.300 Y82.975 E0.02214
G1 X83.748 Y82.430 E0.02214
G1 X84.233 Y81.984 E0.02064
G1 X84.813 Y81.583 E0.02212
G1 X85.447 Y81.269 E0.02219
G1 X86.117 Y81.050 E0.02209
G1 X86.814 Y80.931 E0.02215
G1 X87.522 Y80.913 E0.02220
G1 X88.177 Y80.988 E0.02069
G1 X88.903 Y81.182 E0.02357
G1 X89.483 Y81.427 E0.01973
G1 X93.634 Y83.537 E0.14600
G1 X94.214 Y83.888 E0.02125
G1 X94.760 Y84.336 E0.02214
G1 X95.205 Y84.821 E0.02064
G1 X95.607 Y85.401 E0.02212
G1 X95.921 Y86.035 E0.02219
G1 X96.139 Y86.704 E0.02207
G1 X96.252 Y87.354 E0.02069
G1 X96.277 Y88.108 E0.02363
G1 X96.192 Y88.810 E0.02217
G1 X96.025 Y89.447 E0.02064
G1 X95.775 Y90.042 E0.02023
G1 X95.427 Y89.895 F10800.000
;TYPE:External perimeter
G1 F1200.000
G1 X95.078 Y90.483 E0.02144
G1 X94.664 Y90.987 E0.02045
G1 X94.218 Y91.397 E0.01900
G1 X93.681 Y91.768 E0.02045
G1 X93.096 Y92.058 E0.02047
G1 X92.479 Y92.259 E0.02037
G1 X91.835 Y92.370 E0.02047
G1 X91.183 Y92.386 E0.02045
G1 X90.581 Y92.317 E0.01900
G1 X89.949 Y92.154 E0.02045
G1 X89.363 Y91.908 E0.01996
G1 X85.236 Y89.809 E0.14515
G1 X84.730 Y89.505 E0.01850
G1 X84.188 Y89.067 E0.02188
G1 X83.777 Y88.620 E0.01903
G1 X83.406 Y88.084 E0.02045
G1 X83.116 Y87.499 E0.02047
G1 X82.915 Y86.881 E0.02037
G1 X82.804 Y86.237 E0.02047
G1 X82.788 Y85.586 E0.02045
G1 X82.857 Y84.983 E0.01900
G1 X83.020 Y84.352 E0.02045
G1 X83.272 Y83.751 E0.02042
G1 X83.609 Y83.194 E0.02042
G1 X84.023 Y82.690 E0.02045
G1 X84.469 Y82.280 E0.01900
G1 X85.005 Y81.909 E0.02045
G1 X85.590 Y81.619 E0.02047
G1 X86.208 Y81.417 E0.02037
G1 X86.851 Y81.307 E0.02046
G1 X87.504 Y81.291 E0.02048
G1 X88.107 Y81.360 E0.01901
G1 X88.781 Y81.540 E0.02188
G1 X89.324 Y81.769 E0.01850
G1 X93.451 Y83.867 E0.14515
G1 X93.996 Y84.196 E0.01996
G1 X94.500 Y84.611 E0.02045
G1 X94.910 Y85.057 E0.01900
G1 X95.281 Y85.593 E0.02045
G1 X95.571 Y86.178 E0.02047
G1 X95.772 Y86.796 E0.02037
G1 X95.876 Y87.393 E0.01902
G1 X95.899 Y88.091 E0.02190
G1 X95.820 Y88.739 E0.02046
G1 X95.667 Y89.325 E0.01900
G1 X95.451 Y89.840 E0.01751
G1 X95.647 Y90.230 F10800.000
;WIPE_START
G1 F8640.000
G1 X95.078 Y90.483 E-0.17159
G1 X94.664 Y90.987 E-0.15062
G1 X94.218 Y91.397 E-0.13991
G1 X93.681 Y91.768 E-0.15058
G1 X93.110 Y92.051 E-0.14730
;WIPE_END
G1 E-0.04000 F2100.000
G1 Z0.600 F10800.000
G1 X54.277 Y69.338
G1 Z0.200
G1 E0.80000 F2100.000
;TYPE:Perimeter
G1 F1200.000
G1 X54.695 Y68.500 E0.02936
G1 X55.960 Y66.159 E0.08345
G1 X57.304 Y63.861 E0.08345
G1 X58.724 Y61.610 E0.08345
G1 X60.219 Y59.408 E0.08345
G1 X61.787 Y57.258 E0.08345
G1 X63.426 Y55.161 E0.08345
G1 X65.135 Y53.121 E0.08344
G1 X66.971 Y51.077 E0.08615
G1 X68.753 Y49.218 E0.08075
G1 X70.659 Y47.360 E0.08345
G1 X72.626 Y45.567 E0.08345
G1 X74.652 Y43.841 E0.08345
G1 X76.734 Y42.184 E0.08345
G1 X78.872 Y40.598 E0.08345
G1 X81.061 Y39.085 E0.08345
G1 X83.300 Y37.646 E0.08345
G1 X85.586 Y36.283 E0.08345
G1 X87.916 Y34.998 E0.08345
G1 X90.289 Y33.792 E0.08345
G1 X92.700 Y32.666 E0.08345
G1 X95.148 Y31.622 E0.08345
G1 X97.630 Y30.660 E0.08345
G1 X100.143 Y29.783 E0.08345
G1 X102.683 Y28.990 E0.08345
G1 X105.249 Y28.283 E0.08345
G1 X107.837 Y27.663 E0.08345
G1 X110.445 Y27.130 E0.08345
G1 X113.069 Y26.685 E0.08345
G1 X115.706 Y26.329 E0.08345
G1 X118.354 Y26.061 E0.08345
G1 X121.009 Y25.882 E0.08345
G1 X123.669 Y25.793 E0.08344
G1 X126.417 Y25.796 E0.08615
G1 X128.991 Y25.882 E0.08075
G1 X131.646 Y26.061 E0.08345
G1 X134.294 Y26.329 E0.08344
G1 X137.016 Y26.700 E0.08615
G1 X139.555 Y27.130 E0.08075
G1 X142.163 Y27.663 E0.08344
G1 X144.834 Y28.306 E0.08615
G1 X147.317 Y28.990 E0.08075
G1 X149.857 Y29.783 E0.08345
G1 X152.370 Y30.660 E0.08345
G1 X154.852 Y31.622 E0.08345
G1 X157.300 Y32.666 E0.08345
G1 X159.711 Y33.792 E0.08345
G1 X162.084 Y34.998 E0.08345
G1 X164.414 Y36.283 E0.08345
G1 X166.700 Y37.646 E0.08345
G1 X168.939 Y39.085 E0.08345
G1 X171.128 Y40.598 E0.08345
G1 X173.266 Y42.184 E0.08345
G1 X175.348 Y43.841 E0.08345
G1 X177.374 Y45.567 E0.08345
G1 X179.341 Y47.360 E0.08345
G1 X181.247 Y49.218 E0.08345
G1 X183.089 Y51.139 E0.08345
G1 X184.865 Y53.121 E0.08345
G1 X186.574 Y55.161 E0.08345
G1 X188.213 Y57.258 E0.08344
G1 X189.829 Y59.480 E0.08615
G1 X191.276 Y61.610 E0.08075
G1 X192.696 Y63.861 E0.08344
G1 X194.080 Y66.234 E0.08615
G1 X195.305 Y68.500 E0.08075
G1 X196.492 Y70.882 E0.08345
G1 X197.597 Y73.303 E0.08345
G1 X198.621 Y75.760 E0.08345
G1 X199.561 Y78.250 E0.08345
G1 X200.418 Y80.770 E0.08345
G1 X201.189 Y83.317 E0.08345
G1 X201.874 Y85.888 E0.08345
G1 X202.473 Y88.481 E0.08344
G1 X202.997 Y91.178 E0.08615
G1 X203.407 Y93.721 E0.08075
G1 X203.741 Y96.362 E0.08345
G1 X203.987 Y99.012 E0.08345
G1 X204.143 Y101.668 E0.08345
G1 X204.210 Y104.329 E0.08345
G1 X204.188 Y106.990 E0.08345
G1 X204.076 Y109.649 E0.08345
G1 X203.875 Y112.303 E0.08345
G1 X203.585 Y114.949 E0.08345
G1 X203.206 Y117.583 E0.08345
G1 X202.739 Y120.203 E0.08345
G1 X202.184 Y122.806 E0.08345
G1 X201.542 Y125.389 E0.08345
G1 X200.814 Y127.949 E0.08345
G1 X200.000 Y130.483 E0.08345
G1 X199.102 Y132.988 E0.08345
G1 X198.119 Y135.461 E0.08345
G1 X197.055 Y137.901 E0.08345
G1 X195.908 Y140.303 E0.08345
G1 X194.682 Y142.665 E0.08345
G1 X193.377 Y144.984 E0.08345
G1 X191.995 Y147.259 E0.08345
G1 X190.538 Y149.486 E0.08345
G1 X189.006 Y151.662 E0.08345
G1 X187.402 Y153.786 E0.08345
G1 X185.728 Y155.855 E0.08345
G1 X183.985 Y157.866 E0.08345
G1 X182.176 Y159.818 E0.08345
G1 X180.302 Y161.708 E0.08345
G1 X178.365 Y163.533 E0.08345
G1 X176.369 Y165.293 E0.08345
G1 X174.314 Y166.985 E0.08345
G1 X172.204 Y168.606 E0.08345
G1 X170.040 Y170.156 E0.08345
G1 X167.826 Y171.632 E0.08345
G1 X165.563 Y173.033 E0.08345
G1 X163.254 Y174.358 E0.08345
G1 X160.903 Y175.604 E0.08345
G1 X158.510 Y176.770 E0.08345
G1 X156.080 Y177.855 E0.08345
G1 X153.615 Y178.858 E0.08345
G1 X151.117 Y179.778 E0.08345
G1 X148.590 Y180.613 E0.08345
G1 X146.037 Y181.363 E0.08345
M73 Q0 S200
G1 X143.460 Y182.026 E0.08345
G1 X140.861 Y182.603 E0.08345
G1 X138.245 Y183.092 E0.08345
G1 X135.614 Y183.493 E0.08345
G1 X132.971 Y183.805 E0.08345
G1 X130.319 Y184.028 E0.08345
G1 X127.661 Y184.162 E0.08345
G1 X125.000 Y184.207 E0.08345
G1 X122.339 Y184.162 E0.08344
G1 X119.595 Y184.021 E0.08615
G1 X117.029 Y183.805 E0.08075
G1 X114.386 Y183.493 E0.08345
G1 X111.755 Y183.092 E0.08345
G1 X109.139 Y182.603 E0.08345
G1 X106.540 Y182.026 E0.08345
G1 X103.963 Y181.363 E0.08345
G1 X101.410 Y180.613 E0.08345
G1 X98.883 Y179.778 E0.08345
G1 X96.385 Y178.858 E0.08345
G1 X93.920 Y177.855 E0.08345
G1 X91.490 Y176.770 E0.08345
G1 X89.097 Y175.604 E0.08345
G1 X86.746 Y174.358 E0.08345
G1 X84.437 Y173.033 E0.08345
G1 X82.174 Y171.632 E0.08345
G1 X79.960 Y170.156 E0.08345
G1 X77.796 Y168.606 E0.08345
G1 X75.686 Y166.985 E0.08345
G1 X73.631 Y165.293 E0.08345
G1 X71.635 Y163.534 E0.08344
G1 X69.638 Y161.647 E0.08615
G1 X67.824 Y159.818 E0.08075
G1 X66.015 Y157.866 E0.08345
G1 X64.272 Y155.855 E0.08345
G1 X62.598 Y153.786 E0.08345
